X:6587
T:the Broosom Hornpipe, 1st setting (re-tune aeae, play as written)
O:england
M:3/2
L:1/8
K:A
P:1
A aga A2 B=c A2 e2 | FEF=G B2 E2 F3 B |\
A2 a2 A2 B=c A2 e2 | c2 A4    E2 F3 B ||
P:2
AB^cA a^gfe fedc | d2 B4 E2 F3 B |\
A2 a2 cdec  BcdB | c2 A4 E2 F3 B ||
P:3
ABcd efec efec | dcdB cBc E F3 B |\
ABcd efec fgaf | c2 A4    E2 F3 B||
P:4
B,2 D2 =C2 E2 B,2 D2 | A,2   B4  E2 FED=C|\
B,2 D2 =C2 E2 B,2 D2 | =G,2 =G4 E2 F3 B ||
P:5
=G,2 B,2 A,2 =G2 G,2 =G2| A,2 =G4 E2 FED=C |\
B,=CDB, =CDE=C B,=CDB, | =G,2 =G4 E2 F3 B ||
P:6
Aa^ga ^cdec Bcde | F2 B4 E2 F3 B |\
agfe   fedc dcBA | a2 A4 E2 F3 B |]


